X: 24591
T: Lyndhurst
R: jig
M: 6/8
K: Bdorian
|:f|~B3 BcA|Bce fec|AAA Ace|aga fec|
B2B BcA|Bce fec|Ace fec|~B3 B2:|
|:c/e/|f2a fea|fga fec|AAA Ace|aga fec|
[1f2a fea|fga fec|Ace fec|~B3 B2:|
[2B2B BcA|Bce fec|Ace fec|~B3 B2||
|:f|BcA cBB|fea fec|AAA Ace|aga fec|
BcA cBB|fea fec|Ace fec|~B3 B2:|
|:c/e/|fea f2e|afe fec|AAA Ace|aga fec|
[1fea f2e|afe fec|Ace fec|~B3 B2:|
[2BcA cBB|fea fec|Ace fec|~B3 B2||

